material/.icons/material/spider-web.svg

<svg xmlns="http://www.w3.org/2000/svg" viewBox="0 0 24 24"><path d="M13.62 13.28l1.64 2.26c.03-.54.12-1.07.3-1.61.18-.56.44-1.07.74-1.52l-2.68.87M17.77 19c-.02-1.32.18-2.73.64-4.15.47-1.43 1.15-2.71 1.95-3.76l-2.04.66c-.78.51-1.45 1.39-1.82 2.48-.33 1.06-.32 2.13 0 2.99L17.77 19m1.48 2c-.5.46-1.04.86-1.62 1.2l-.32-.44C15.9 21 14.04 20.5 12 20.5c-2.04 0-3.9.5-5.31 1.26l-.32.44c-.58-.34-1.12-.74-1.62-1.2l.25-.31c.33-1.61.22-3.57-.42-5.55-.64-1.95-1.68-3.58-2.87-4.68l-.44-.14c.15-.66.36-1.32.62-1.91l.4.13c1.63-.17 3.45-.89 5.14-2.11 1.66-1.21 2.89-2.7 3.57-4.17v-.47l1-.04 1 .04v.42c.67 1.5 1.91 3.02 3.6 4.24 1.66 1.21 3.46 1.92 5.07 2.11l.44-.15c.26.59.47 1.25.62 1.91l-.5.18c-1.19 1.08-2.23 2.71-2.86 4.66-.63 1.93-.75 3.84-.45 5.41l.33.43M11 11.37V8.5c-.34.42-.74.82-1.22 1.17-.49.33-1.01.62-1.53.83l2.75.87m0-7.15c-.75 1.09-1.76 2.13-3 3.02-1.22.9-2.54 1.54-3.82 1.92l1.97.64c.96.08 2.07-.24 3.04-.94.94-.68 1.57-1.59 1.81-2.5V4.22m2 7.15l2.74-.87c-.51-.2-1.02-.47-1.49-.81-.49-.36-.91-.77-1.25-1.19v2.87m6.8-2.21c-1.27-.38-2.57-1.01-3.8-1.9-1.23-.9-2.24-1.95-3-3.06v2.07c.22.94.86 1.9 1.84 2.61.93.68 1.99.99 2.93.94l2.03-.66m-9.42 4.12l-2.74-.89c.31.45.56.96.74 1.52.19.59.28 1.15.3 1.71l1.7-2.34m-6.8-2.21c.8 1.05 1.48 2.33 1.95 3.76.47 1.46.67 2.91.64 4.25l1.21-1.67c.38-.91.42-2.05.05-3.19-.36-1.1-1.03-1.98-1.82-2.49l-2.03-.66M12 14.45l-1.65 2.27a6.321 6.321 0 013.3 0L12 14.45m-4.16 5.73c1.24-.43 2.66-.68 4.16-.68s2.92.25 4.16.68l-1.28-1.76c-.72-.57-1.75-.92-2.88-.92s-2.16.35-2.88.92l-1.28 1.76z"/></svg>

<?xml version="1.0" encoding="UTF-8"?><!DOCTYPE svg PUBLIC "-//W3C//DTD SVG 1.1//EN" "http://www.w3.org/Graphics/SVG/1.1/DTD/svg11.dtd"><svg xmlns="http://www.w3.org/2000/svg" xmlns:xlink="http://www.w3.org/1999/xlink" version="1.1" id="mdi-spider-web" width="24" height="24" viewBox="0 0 24 24"><path d="M13.62,13.28L15.26,15.54C15.29,15 15.38,14.47 15.56,13.93C15.74,13.37 16,12.86 16.3,12.41L13.62,13.28M17.77,19C17.75,17.68 17.95,16.27 18.41,14.85C18.88,13.42 19.56,12.14 20.36,11.09L18.32,11.75C17.54,12.26 16.87,13.14 16.5,14.23C16.17,15.29 16.18,16.36 16.5,17.22L17.77,19M19.25,21C18.75,21.46 18.21,21.86 17.63,22.2L17.31,21.76C15.9,21 14.04,20.5 12,20.5C9.96,20.5 8.1,21 6.69,21.76L6.37,22.2C5.79,21.86 5.25,21.46 4.75,21L5,20.69C5.33,19.08 5.22,17.12 4.58,15.14C3.94,13.19 2.9,11.56 1.71,10.46L1.27,10.32C1.42,9.66 1.63,9 1.89,8.41L2.29,8.54C3.92,8.37 5.74,7.65 7.43,6.43C9.09,5.22 10.32,3.73 11,2.26V1.79L12,1.75L13,1.79V2.21C13.67,3.71 14.91,5.23 16.6,6.45C18.26,7.66 20.06,8.37 21.67,8.56L22.11,8.41C22.37,9 22.58,9.66 22.73,10.32L22.23,10.5C21.04,11.58 20,13.21 19.37,15.16C18.74,17.09 18.62,19 18.92,20.57L19.25,21M11,11.37V8.5C10.66,8.92 10.26,9.32 9.78,9.67C9.29,10 8.77,10.29 8.25,10.5L11,11.37M11,4.22C10.25,5.31 9.24,6.35 8,7.24C6.78,8.14 5.46,8.78 4.18,9.16L6.15,9.8C7.11,9.88 8.22,9.56 9.19,8.86C10.13,8.18 10.76,7.27 11,6.36V4.22M13,11.37L15.74,10.5C15.23,10.3 14.72,10.03 14.25,9.69C13.76,9.33 13.34,8.92 13,8.5V11.37M19.8,9.16C18.53,8.78 17.23,8.15 16,7.26C14.77,6.36 13.76,5.31 13,4.2V6.27C13.22,7.21 13.86,8.17 14.84,8.88C15.77,9.56 16.83,9.87 17.77,9.82L19.8,9.16M10.38,13.28L7.64,12.39C7.95,12.84 8.2,13.35 8.38,13.91C8.57,14.5 8.66,15.06 8.68,15.62L10.38,13.28M3.58,11.07C4.38,12.12 5.06,13.4 5.53,14.83C6,16.29 6.2,17.74 6.17,19.08L7.38,17.41C7.76,16.5 7.8,15.36 7.43,14.22C7.07,13.12 6.4,12.24 5.61,11.73L3.58,11.07M12,14.45L10.35,16.72C10.87,16.58 11.42,16.5 12,16.5C12.58,16.5 13.13,16.58 13.65,16.72L12,14.45M7.84,20.18C9.08,19.75 10.5,19.5 12,19.5C13.5,19.5 14.92,19.75 16.16,20.18L14.88,18.42C14.16,17.85 13.13,17.5 12,17.5C10.87,17.5 9.84,17.85 9.12,18.42L7.84,20.18Z" /></svg>
